build/img/icons/blind.svg

<svg width="24" height="24" viewBox="0 0 24 24" fill="none" xmlns="http://www.w3.org/2000/svg">
<path d="M2.54962 13.4056C2.27782 13.0326 2.14191 12.8462 2.04837 12.4854C1.9839 12.2367 1.9839 11.7633 2.04837 11.5146C2.14191 11.1538 2.27782 10.9674 2.54962 10.5944C4.03904 8.55068 7.30263 5 12 5C16.6974 5 19.961 8.55068 21.4504 10.5944C21.7222 10.9674 21.8581 11.1538 21.9517 11.5146C22.0161 11.7633 22.0161 12.2367 21.9517 12.4854C21.8581 12.8462 21.7222 13.0326 21.4504 13.4056C19.961 15.4493 16.6974 19 12 19C7.30263 19 4.03904 15.4493 2.54962 13.4056Z" stroke="#3a3f4a" stroke-width="1.5" stroke-linecap="round" stroke-linejoin="round"/>
<path d="M12 14C13.1046 14 14 13.1046 14 12C14 10.8954 13.1046 10 12 10C10.8954 10 10 10.8954 10 12C10 13.1046 10.8954 14 12 14Z" stroke="#3a3f4a" stroke-width="1.5" stroke-linecap="round" stroke-linejoin="round"/>
</svg>

<svg width="24" height="24" fill="none" xmlns="http://www.w3.org/2000/svg"><path d="M2.55 13.406c-.272-.373-.408-.56-.502-.92a2.46 2.46 0 010-.971c.094-.361.23-.548.502-.92C4.039 8.55 7.303 5 12 5c4.697 0 7.961 3.55 9.45 5.594.272.373.408.56.502.92.064.25.064.723 0 .971-.094.361-.23.548-.502.92C19.961 15.45 16.697 19 12 19c-4.697 0-7.961-3.55-9.45-5.594z" stroke="#3a3f4a" stroke-width="1.5" stroke-linecap="round" stroke-linejoin="round"/><path d="M12 14a2 2 0 100-4 2 2 0 000 4z" stroke="#3a3f4a" stroke-width="1.5" stroke-linecap="round" stroke-linejoin="round"/></svg>
